public/assets/standards/sci-ai/grid-stability-icon.svg

<svg width="48" height="48" viewBox="0 0 48 48" fill="none" xmlns="http://www.w3.org/2000/svg">
<path d="M8.16 32.19L48 32.19V7.24L8.16 7.24V32.19Z" fill="#A5C352"/>
<path d="M-3.43323e-05 40.75L39.84 40.75V15.8L-3.43323e-05 15.8V40.75Z" fill="#006D68"/>
<path d="M20.6399 27.19C18.8899 26.46 18.3799 26.02 18.3799 25.19C18.3799 24.52 18.8599 23.74 20.2099 23.74C21.4399 23.74 22.2099 24.18 22.5299 24.37L22.7499 24.49L23.3799 22.82L23.2199 22.73C22.5199 22.32 21.7299 22.09 20.8199 22.04V20.16H19.1999V22.14C17.4199 22.5 16.2899 23.77 16.2899 25.42C16.2899 27.38 17.8799 28.28 19.5999 28.95C21.0499 29.54 21.6499 30.15 21.6499 31.05C21.6499 32.04 20.7899 32.73 19.5699 32.73C18.6399 32.73 17.6699 32.44 16.9099 31.94L16.6799 31.79L16.0699 33.49L16.1999 33.58C16.8799 34.07 17.9899 34.41 19.0599 34.46V36.41H20.6999V34.37C22.7999 33.95 23.7499 32.35 23.7499 30.91C23.7499 29.19 22.8199 28.08 20.6299 27.18L20.6399 27.19Z" fill="white"/>
</svg>

<svg xmlns="http://www.w3.org/2000/svg" width="48" height="48" fill="none" viewBox="0 0 48 48"><path fill="#a5c352" d="M8.16 32.19H48V7.24H8.16z"/><path fill="#006d68" d="M0 40.75h39.84V15.8H0z"/><path fill="#fff" d="M20.64 27.19c-1.75-.73-2.26-1.17-2.26-2 0-.67.48-1.45 1.83-1.45 1.23 0 2 .44 2.32.63l.22.12.63-1.67-.16-.09c-.7-.41-1.49-.64-2.4-.69v-1.88H19.2v1.98c-1.78.36-2.91 1.63-2.91 3.28 0 1.96 1.59 2.86 3.31 3.53 1.45.59 2.05 1.2 2.05 2.1 0 .99-.86 1.68-2.08 1.68-.93 0-1.9-.29-2.66-.79l-.23-.15-.61 1.7.13.09c.68.49 1.79.83 2.86.88v1.95h1.64v-2.04c2.1-.42 3.05-2.02 3.05-3.46 0-1.72-.93-2.83-3.12-3.73z"/></svg>
